X:1
T:[ID 2-26b]
T:[ID 2-26b]
T:Bezeichnung standardisiert: Menuett Menuet Secondo 9. In dieser Quelle auch als: Menuetto \"Ahnlich in dieser Quelle: ID 2-42a (Anm. S. Wascher);
T:Urheber unbekannt Datum in der hier transkribierten schriftlichen Quelle: 1767
C:Urheber unbekannt
C:Datum in der hier transkribierten schriftlichen Quelle: 1767
L:1/8
M:3/4
K:D
V:1 treble 
V:1
"^1)" F3 x GE | F3 AGE | [Fd][Af][Fd][DEe]GE | F4 FE | D2 B2 A^G | AcBA^GE | A2 B,CG,C | C6 :: %8
 F4 (3FED | GG,B,D B,2 | ^G4 (3GFE | AG,CE C2 | c4 (3cBA | dAFDFf | e2 d2 GE | F6 :| %16

